X:1
T:Deil Among the Mantua-Makers
M:4/4
L:1/8
Z:Andrew Kuntz
K:A
|: ~c3d edcd | efga fedc| ~c3d edcd | fedc c2B2 :|
|| ~E3G BGEG | ABcd ecAc | E3G BGEA | cAec c2B2
| E3G BGEG | ABcd ecAc | dfdB cecA | dBAG A2A2 ||

